X:1
T:An Choisir
Z: id:dc-slide-1
M:6/8
L:1/8
K:B Minor
B2A|F2B BAB|d2e f3|e3 efe|c2e a3|!
F2B BAB|d2e f3|e2d cBA|B3:|!
d2e|fgf efe|d2e c2d|B3 dcB|A2F F2E|!
F2B BAB|d2e f3|e2d cBA|B3:|!

